icons/delete-bin-3-fill.svg

<svg xmlns="http://www.w3.org/2000/svg" viewBox="0 0 24 24">
    <g>
        <path fill="none" d="M0 0h24v24H0z"/>
        <path d="M20 7v14a1 1 0 0 1-1 1H5a1 1 0 0 1-1-1V7H2V5h20v2h-2zm-9 2v2h2V9h-2zm0 3v2h2v-2h-2zm0 3v2h2v-2h-2zM7 2h10v2H7V2z"/>
    </g>
</svg>

<svg viewBox="0 0 24 24" fill="currentColor" xmlns="http://www.w3.org/2000/svg"><path d="M20 7V21C20 21.5523 19.5523 22 19 22H5C4.44772 22 4 21.5523 4 21V7H2V5H22V7H20ZM11 9V11H13V9H11ZM11 12V14H13V12H11ZM11 15V17H13V15H11ZM7 2H17V4H7V2Z"/></svg>
